X:1
T:I Have a Friend
T:John Robson Sweney (1837-1899)
T:I Have a Friend
T:Public Domain
T:Public Domain
C:John Robson Sweney (1837-1899)
Z:Public Domain
%%score ( 1 2 ) ( 3 4 )
L:1/8
M:4/4
K:G
V:1 treble 
V:2 treble 
V:3 bass 
V:4 bass 
V:1
 DD[DG] | [GB]2 [GB]>[Gd] [Fc]2 [DF]2 | [DA]2 [DG]3 D[DG][GB] | [Gd]2 [Ge]>[Gd] [GB]2 G2 | %4
w: 1.~I have a|He came to seek me,|I was a- far on|o- cean wave, In- to|
w: 2.~O how my|its joy is bound- ing,|O what a Sav- ior|friend is He, Full of|
w: 3.~I have a|will ne’er for- sake me,|I shall be kept by|might- y pow’r. Safe in|
w: 4.~I have a|is sure and stead- fast,|Firm as the rock where|faith I stand; I have|
 [FA]4- [FA][FA][FA][GA] | [Ac]2 [Ac][GB] [FA]2 [Fe]2 | [Gd]4 [GB][DG][DG][DA] | %7
w: fold * of His love|He brought me, Peace to|my soul from that hour|
w: pass- * ion and rich|in bless- ing, O how|He loves and He cares|
w: arms * of His love|that folds me, Mo- ment|by mo- ment and hour|
w: pledge * of a rest|e- ter- nal Wait- ing|for me in the soul’s|
 [DB]2 [=Fd][Ec] [DB]2 [CA]2 | [B,G]6 z ||"^Refrain" [Gd]2 [GB]2 [Gd]2 [GB]2 | %10
w: He gave. * * *|||
w: for me. * * *|||
w: by hour. * * *|||
w: bright land. * * *|||
 [Ge][Gd][DG][DB] [DB]2 [DA]2 | [DA][DA][DA][DB] [Fc][Fc][Fc][Fd] | [Ge]2 [Gd]2 [GB]4 | %13
w: |||
w: |||
w: |||
w: |||
 [Gd]2 [GB]2 [Gd]2 [GB]2 | [DG][DG][DA][DB] [Ec]2 [Ge]2 | [Ge][Ge][Gd][GB] [Gd][Gd]G[GA] | %16
w: |||
w: |||
w: |||
w: |||
 [GB]2 [DA]2 [DG] |] %17
w: |
w: |
w: |
w: |
V:2
 DD x | x8 | x5 D x2 | x6 G2 | x8 | x8 | x8 | x8 | x7 || x8 | x8 | x8 | x8 | x8 | x8 | x6 G x | %16
w: friend and||the|the|||||||||||||
w: heart with||and|com-|||||||||||||
w: friend that||His|the|||||||||||||
w: hope that||by|the|||||||||||||
 x5 |] %17
w: |
w: |
w: |
w: |
V:3
 [G,B,][G,B,][G,B,] | [G,D]2 [G,D]>[G,B,] [D,A,]2 [D,A,]2 | [D,C]2 [G,,B,]3 [G,B,][G,B,][G,D] | %3
w: ~ ~ ~|~ ~ ~ ~ ~|~ ~ ~ ~ ~|
 [G,B,]2 [G,C]>[G,B,] [G,D]2 [B,,D]2 | [D,D]4- [D,D][D,D][D,D][D,D] | %5
w: ~ ~ ~ ~ ~|~ * ~ ~ ~|
 [D,D]2 [D,D][D,D] [D,D]2 [D,C]2 | [G,B,]4 [G,D][G,B,][G,B,][G,A,] | %7
w: ~ ~ ~ ~ ~|~ ~ ~ ~ ~|
 G,2 [B,,G,][C,G,] [D,G,]2 [D,F,]2 | [G,,G,]6 z || [G,B,]2 [G,D]2 [G,B,]2 [G,D]2 | %10
w: ~ ~ ~ ~ ~|Glo-|ry, glo- ry, Je-|
 [G,C][G,B,][G,B,]G, [D,G,]2 [D,F,]2 | [D,F,][D,F,][D,F,][D,G,] [D,A,][D,A,][D,D][D,C] | %12
w: sus is my Sav- ior, I|sing and praise him in the glad, new|
 [G,B,]2 [G,B,]2 [G,D]4 | [G,B,]2 [G,D]2 [G,B,]2 [G,D]2 | [G,B,][G,B,][G,A,]G, [C,G,]2 [C,C]2 | %15
w: song; Glo- ry,|glo- ry, I will|give Him glo- ry, When mine|
 [C,C][E,C][G,B,][G,D] [G,B,][G,B,][G,B,][E,^C] | [D,D]2 [D,C]2 [G,,B,] |] %17
w: be- hold Him, in the blood- washed throng.||
V:4
 x3 | x8 | x8 | x8 | x8 | x8 | x8 | G,2 x6 | x7 || x8 | x3 G, x4 | x8 | x8 | x8 | x3 G, x4 | x8 | %16
w: |||||||~|||will||||eyes||
 x5 |] %17
w: |

